src/icons/svg/Notes.svg

<svg width="24" height="24" viewBox="0 0 24 24" fill="none" xmlns="http://www.w3.org/2000/svg">
<path d="M6.82203 8.578C6.08903 8.578 5.51103 9.178 5.51103 9.889C5.51103 10.622 6.11103 11.2 6.82203 11.2C7.55503 11.2 8.13303 10.6 8.13303 9.889C8.13303 9.178 7.55503 8.578 6.82203 8.578V8.578ZM12.089 8.578C11.356 8.578 10.778 9.178 10.778 9.889C10.778 10.622 11.378 11.2 12.089 11.2C12.822 11.2 13.4 10.6 13.4 9.889C13.422 9.178 12.822 8.578 12.089 8.578ZM20.667 1.978H3.53403C2.44503 1.978 1.55603 2.867 1.55603 3.956V17.156C1.55603 18.245 2.44503 19.134 3.53403 19.134H9.46703L12.089 21.778L14.733 19.134H20.666C21.755 19.134 22.644 18.245 22.644 17.156V3.978C22.644 2.867 21.777 1.978 20.666 1.978H20.667ZM21.333 17.156C21.333 17.512 21.044 17.823 20.666 17.823H14.088L12.11 19.801L10.132 17.823H3.53203C3.17603 17.823 2.86503 17.534 2.86503 17.156V3.978C2.86503 3.622 3.15403 3.311 3.53203 3.311H20.665C21.021 3.311 21.332 3.6 21.332 3.978V17.156H21.333ZM17.378 8.578C16.645 8.578 16.067 9.178 16.067 9.889C16.067 10.622 16.667 11.2 17.378 11.2C18.111 11.2 18.689 10.6 18.689 9.889C18.689 9.178 18.111 8.578 17.378 8.578Z" fill="#1C2125"/>
</svg>

<!-- Generated by IcoMoon.io -->
<svg version="1.1" xmlns="http://www.w3.org/2000/svg" width="24" height="24" viewBox="0 0 24 24">
<title>notes</title>
<path fill="#444" d="M6.822 8.578c-0.733 0-1.311 0.6-1.311 1.311 0 0.733 0.6 1.311 1.311 1.311 0.733 0 1.311-0.6 1.311-1.311s-0.578-1.311-1.311-1.311zM12.089 8.578c-0.733 0-1.311 0.6-1.311 1.311 0 0.733 0.6 1.311 1.311 1.311 0.733 0 1.311-0.6 1.311-1.311 0.022-0.711-0.578-1.311-1.311-1.311zM20.667 1.978h-17.133c-1.089 0-1.978 0.889-1.978 1.978v13.2c0 1.089 0.889 1.978 1.978 1.978h5.933l2.622 2.644 2.644-2.644h5.933c1.089 0 1.978-0.889 1.978-1.978v-13.178c0-1.111-0.867-2-1.978-2zM21.333 17.156c0 0.356-0.289 0.667-0.667 0.667h-6.578l-1.978 1.978-1.978-1.978h-6.6c-0.356 0-0.667-0.289-0.667-0.667v-13.178c0-0.356 0.289-0.667 0.667-0.667h17.133c0.356 0 0.667 0.289 0.667 0.667v13.178zM17.378 8.578c-0.733 0-1.311 0.6-1.311 1.311 0 0.733 0.6 1.311 1.311 1.311 0.733 0 1.311-0.6 1.311-1.311s-0.578-1.311-1.311-1.311z"></path>
</svg>
